storage/app/icons/phosphoricons/light/chalkboard-simple-light.svg

<svg xmlns="http://www.w3.org/2000/svg" fill="currentColor" viewBox="0 0 256 256"><path d="M240 194h-10v-26a6 6 0 0 0-6-6h-64a6 6 0 0 0-6 6v26H38V56a2 2 0 0 1 2-2h176a2 2 0 0 1 2 2v80a6 6 0 0 0 12 0V56a14 14 0 0 0-14-14H40a14 14 0 0 0-14 14v138H16a6 6 0 0 0 0 12h224a6 6 0 0 0 0-12m-74-20h52v20h-52Z"/></svg>

<svg xmlns="http://www.w3.org/2000/svg" viewBox="0 0 256 256" fill="currentColor"><path d="M240,194H230V168a6,6,0,0,0-6-6H160a6,6,0,0,0-6,6v26H38V56a2,2,0,0,1,2-2H216a2,2,0,0,1,2,2v80a6,6,0,0,0,12,0V56a14,14,0,0,0-14-14H40A14,14,0,0,0,26,56V194H16a6,6,0,0,0,0,12H240a6,6,0,0,0,0-12Zm-74-20h52v20H166Z"/></svg>
